images/UpgradeGraphics/BCHUpgrades_Icons/CVE-2018-17144-orange.svg

<svg width="491" height="414" viewBox="0 0 491 414" fill="none" xmlns="http://www.w3.org/2000/svg">
<path d="M37.1769 292C19.9584 282.059 19.9584 265.941 37.1769 256L217.31 152C234.529 142.059 262.445 142.059 279.664 152L459.797 256C477.016 265.941 477.016 282.059 459.797 292L279.664 396C262.446 405.941 234.529 405.941 217.31 396L37.1769 292Z" fill="url(#paint0_linear_10_3)"/>
<path d="M37.1769 252C19.9584 242.059 19.9584 225.941 37.1769 216L217.31 112C234.529 102.059 262.445 102.059 279.664 112L459.797 216C477.016 225.941 477.016 242.059 459.797 252L279.664 356C262.446 365.941 234.529 365.941 217.31 356L37.1769 252Z" fill="#EDB200"/>
<g style="mix-blend-mode:screen">
<path d="M76.1769 245.359C58.9584 235.418 58.9584 219.301 76.1769 209.359L217.096 128C234.314 118.059 262.231 118.059 279.449 128L420.855 209.641C438.074 219.582 438.074 235.699 420.855 245.641L279.936 327C262.718 336.941 234.801 336.941 217.583 327L76.1769 245.359Z" fill="#FFD761"/>
</g>
<g style="mix-blend-mode:lighten">
<path d="M75.1769 152.359C57.9584 142.418 57.9584 126.301 75.1769 116.359L216.096 35C233.314 25.0589 261.231 25.0589 278.449 35L419.855 116.641C437.074 126.582 437.074 142.699 419.855 152.641L278.936 234C261.718 243.941 233.801 243.941 216.583 234L75.1769 152.359Z" fill="#FFF37C" fill-opacity="0.54"/>
</g>
<g style="mix-blend-mode:lighten">
<path d="M73.1769 206.359C55.9584 196.418 55.9584 180.301 73.1769 170.359L214.096 89C231.314 79.0589 259.231 79.0589 276.449 89L417.855 170.641C435.074 180.582 435.074 196.699 417.855 206.641L276.936 288C259.718 297.941 231.801 297.941 214.583 288L73.1769 206.359Z" fill="#FFF37C" fill-opacity="0.51"/>
</g>
<g style="mix-blend-mode:hard-light">
<path d="M375.847 132.939C379.131 134.809 379.189 137.879 375.689 139.613C367.466 143.687 358.129 146.977 348.008 149.355C335.29 152.344 321.583 153.836 307.671 153.745C293.759 153.653 279.914 151.982 266.925 148.825C253.937 145.667 242.06 141.087 231.973 135.344C221.885 129.602 213.785 122.81 208.135 115.356C202.485 107.902 199.394 99.933 199.041 91.9029C198.688 83.8728 201.078 75.9393 206.075 68.5553C210.052 62.6791 215.619 57.2425 222.558 52.438C225.512 50.3928 230.83 50.3833 234.114 52.253C237.398 54.1228 237.399 57.1621 234.499 59.233C229.015 63.15 224.593 67.5452 221.39 72.2777C217.166 78.5184 215.146 85.2235 215.444 92.0103C215.743 98.797 218.355 105.532 223.13 111.832C227.906 118.132 234.752 123.872 243.277 128.725C251.802 133.579 261.84 137.45 272.818 140.118C283.795 142.787 295.497 144.2 307.255 144.276C319.013 144.353 330.597 143.093 341.345 140.567C349.497 138.651 357.046 136.036 363.753 132.815C367.299 131.112 372.562 131.07 375.847 132.939Z" fill="white"/>
<path d="M298.544 56.7147C298.64 55.868 299.912 55.2178 301.358 55.3687C303.77 55.6203 306.113 56.0895 308.312 56.764C311.306 57.6823 313.976 58.9633 316.169 60.5339C318.362 62.1044 320.036 63.9337 321.094 65.9173C322.152 67.9009 322.575 70 322.337 72.0948C322.099 74.1895 321.206 76.2388 319.708 78.1257C318.211 80.0126 316.138 81.7002 313.609 83.092C311.079 84.4839 308.142 85.5527 304.966 86.2376C302.633 86.7406 300.205 87.0293 297.757 87.097C296.289 87.1377 295.175 86.3972 295.271 85.5505C295.367 84.7039 296.638 84.0736 298.104 84.0102C299.908 83.9321 301.695 83.7054 303.417 83.3341C305.983 82.7809 308.355 81.9175 310.398 80.7932C312.442 79.6688 314.116 78.3057 315.326 76.7815C316.535 75.2573 317.257 73.6019 317.449 71.9098C317.641 70.2177 317.3 68.5221 316.445 66.9198C315.59 65.3175 314.238 63.8398 312.467 62.5712C310.695 61.3026 308.538 60.2678 306.12 59.526C304.496 59.028 302.776 58.6686 301.005 58.4553C299.566 58.282 298.448 57.5614 298.544 56.7147Z" fill="white"/>
<path d="M317.636 101.185C316.241 101.452 314.72 101.016 314.418 100.186C313.915 98.8006 313.787 97.3711 314.043 95.9409C314.391 93.9938 315.443 92.0838 317.14 90.3199C318.836 88.5561 321.142 86.9731 323.928 85.6611C326.714 84.3492 329.924 83.3341 333.376 82.6737C336.827 82.0134 340.452 81.7208 344.043 81.8126C347.635 81.9044 351.123 82.3788 354.308 83.2087C357.492 84.0387 360.312 85.2079 362.605 86.6497C364.29 87.7086 365.666 88.8993 366.695 90.1837C367.312 90.9538 366.543 91.8279 365.148 92.0948C363.753 92.3618 362.263 91.9186 361.61 91.1584C360.807 90.2224 359.771 89.3518 358.528 88.57C356.675 87.4054 354.398 86.4609 351.825 85.7905C349.252 85.1201 346.435 84.7369 343.534 84.6627C340.633 84.5886 337.704 84.825 334.917 85.3584C332.129 85.8918 329.535 86.7118 327.285 87.7715C325.035 88.8313 323.171 90.11 321.801 91.5348C320.431 92.9596 319.581 94.5024 319.3 96.0753C319.111 97.131 319.181 98.1864 319.505 99.2143C319.768 100.049 319.031 100.918 317.636 101.185Z" fill="white"/>
<path d="M92.9649 137.73C89.6812 135.86 89.6238 132.79 93.1248 131.056C101.349 126.984 110.687 123.695 120.809 121.317C133.528 118.33 147.235 116.84 161.147 116.932C175.059 117.025 188.904 118.698 201.891 121.856C214.879 125.015 226.754 129.597 236.84 135.34C246.925 141.084 255.023 147.877 260.671 155.331C266.319 162.785 269.407 170.755 269.758 178.785C270.109 186.815 267.716 194.748 262.716 202.132C258.737 208.008 253.17 213.444 246.229 218.247C243.274 220.292 237.956 220.301 234.673 218.431C231.389 216.561 231.389 213.522 234.289 211.451C239.775 207.535 244.199 203.14 247.403 198.408C251.629 192.168 253.651 185.463 253.355 178.676C253.058 171.889 250.448 165.153 245.675 158.853C240.901 152.553 234.057 146.812 225.533 141.958C217.009 137.104 206.973 133.231 195.996 130.562C185.02 127.893 173.319 126.478 161.561 126.4C149.803 126.322 138.218 127.581 127.469 130.106C119.317 132.021 111.766 134.635 105.059 137.856C101.512 139.558 96.2487 139.6 92.9649 137.73Z" fill="white"/>
<path fill-rule="evenodd" clip-rule="evenodd" d="M252.04 76.5126C226.237 77.856 198.885 85.1769 176.674 98C137.68 120.513 128.062 152.177 152.274 172.088L206.985 140.5C211.29 138.015 218.269 138.015 222.574 140.5L223.44 141C227.744 143.485 227.744 147.515 223.44 150L168.728 181.588C203.214 195.566 258.058 190.013 297.052 167.5C319.262 154.677 331.942 138.885 334.269 123.987L252.04 76.5126Z" fill="white"/>
<path d="M332.992 117.75C342.13 112.474 347.108 105.228 346.83 97.6056C346.552 89.9834 344.689 80.5032 335.157 75C325.625 69.4968 309.205 68.4212 296.003 68.2606C282.801 68.1 270.25 70.9739 261.112 76.25L297.052 97L332.992 117.75Z" fill="white"/>
<rect width="40" height="12" rx="6" transform="matrix(0.866025 0.5 -0.866025 0.5 154.158 80)" fill="white"/>
<rect width="40" height="12" rx="6" transform="matrix(0.866025 0.5 -0.866025 0.5 290.124 157.5)" fill="white"/>
</g>
<path d="M48 42.7172L250.561 147.949L248.467 333.208L65 225.217L48 42.7172Z" fill="url(#paint1_linear_10_3)"/>
<path d="M243 145.934L449 34.9342L428 227.315L244.5 331.934L243 145.934Z" fill="url(#paint2_linear_10_3)"/>
<defs>
<linearGradient id="paint0_linear_10_3" x1="41" y1="314.5" x2="274.774" y2="478.97" gradientUnits="userSpaceOnUse">
<stop offset="0.441153" stop-color="#FFC107"/>
<stop offset="1" stop-color="#FFD862"/>
</linearGradient>
<linearGradient id="paint1_linear_10_3" x1="151.533" y1="43.9353" x2="86.3853" y2="246.936" gradientUnits="userSpaceOnUse">
<stop offset="0.155401" stop-color="white" stop-opacity="0"/>
<stop offset="0.657951" stop-color="white" stop-opacity="0.1"/>
<stop offset="1" stop-color="#FFF163"/>
</linearGradient>
<linearGradient id="paint2_linear_10_3" x1="388.48" y1="-1.53274" x2="457.632" y2="244.013" gradientUnits="userSpaceOnUse">
<stop offset="0.155401" stop-color="white" stop-opacity="0"/>
<stop offset="0.657951" stop-color="white" stop-opacity="0.1"/>
<stop offset="1" stop-color="#FFF163"/>
</linearGradient>
</defs>
</svg>

<svg xmlns="http://www.w3.org/2000/svg" width="491" height="414" fill="none" xmlns:v="https://vecta.io/nano"><path d="M37.177 292c-17.219-9.941-17.219-26.059 0-36L217.31 152c17.219-9.941 45.135-9.941 62.354 0l180.133 104c17.219 9.941 17.219 26.059 0 36L279.664 396c-17.218 9.941-45.135 9.941-62.354 0L37.177 292z" fill="url(#A)"/><path d="M37.177 252c-17.219-9.941-17.219-26.059 0-36L217.31 112c17.219-9.941 45.135-9.941 62.354 0l180.133 104c17.219 9.941 17.219 26.059 0 36L279.664 356c-17.218 9.941-45.135 9.941-62.354 0L37.177 252z" fill="#edb200"/><path d="M76.177 245.359c-17.219-9.941-17.219-26.058 0-36L217.096 128c17.218-9.941 45.135-9.941 62.353 0l141.406 81.641c17.219 9.941 17.219 26.058 0 36L279.936 327c-17.218 9.941-45.135 9.941-62.353 0L76.177 245.359z" fill="#ffd761" style="mix-blend-mode:screen"/><g fill="#fff37c"><path d="M75.177 152.359c-17.219-9.941-17.219-26.058 0-36L216.096 35c17.218-9.941 45.135-9.941 62.353 0l141.406 81.641c17.219 9.941 17.219 26.058 0 36L278.936 234c-17.218 9.941-45.135 9.941-62.353 0L75.177 152.359z" fill-opacity=".54" style="mix-blend-mode:lighten"/><path d="M73.177 206.359c-17.219-9.941-17.219-26.058 0-36L214.096 89c17.218-9.941 45.135-9.941 62.353 0l141.406 81.641c17.219 9.941 17.219 26.058 0 36L276.936 288c-17.218 9.941-45.135 9.941-62.353 0L73.177 206.359z" fill-opacity=".51" style="mix-blend-mode:lighten"/></g><g style="mix-blend-mode:hard-light" fill="#fff"><path d="M375.847 132.939c3.284 1.87 3.342 4.94-.158 6.674-8.223 4.074-17.56 7.364-27.681 9.742-12.718 2.989-26.425 4.481-40.337 4.39s-27.757-1.763-40.746-4.92-24.865-7.738-34.952-13.481-18.188-12.534-23.838-19.988-8.741-15.423-9.094-23.453 2.037-15.964 7.034-23.348c3.977-5.876 9.544-11.313 16.483-16.117 2.954-2.045 8.272-2.055 11.556-.185s3.285 4.909.385 6.98c-5.484 3.917-9.906 8.312-13.109 13.045-4.224 6.241-6.244 12.946-5.946 19.733s2.911 13.522 7.686 19.822 11.622 12.04 20.147 16.893 18.563 8.725 29.541 11.393 22.679 4.082 34.437 4.158 23.342-1.183 34.09-3.709c8.152-1.916 15.701-4.531 22.408-7.752 3.546-1.703 8.809-1.745 12.094.124zm-77.303-76.224c.096-.847 1.368-1.497 2.814-1.346 2.412.252 4.755.721 6.954 1.395 2.994.918 5.664 2.199 7.857 3.77s3.867 3.4 4.925 5.383 1.481 4.083 1.243 6.178-1.131 4.144-2.629 6.031-3.57 3.575-6.099 4.966-5.467 2.461-8.643 3.146c-2.333.503-4.761.792-7.209.859-1.468.041-2.582-.7-2.486-1.546s1.367-1.477 2.833-1.54a31.8 31.8 0 0 0 5.313-.676c2.566-.553 4.938-1.417 6.981-2.541s3.718-2.487 4.928-4.012 1.931-3.18 2.123-4.872-.149-3.388-1.004-4.99-2.207-3.08-3.978-4.349-3.929-2.303-6.347-3.045a29.6 29.6 0 0 0-5.115-1.071c-1.439-.173-2.557-.894-2.461-1.741zm19.092 44.47c-1.395.267-2.916-.169-3.218-.999-.503-1.385-.631-2.815-.375-4.245.348-1.947 1.4-3.857 3.097-5.621s4.002-3.347 6.788-4.659 5.996-2.327 9.448-2.987a50.31 50.31 0 0 1 10.667-.861c3.592.092 7.08.566 10.265 1.396s6.004 1.999 8.297 3.441c1.685 1.059 3.061 2.25 4.09 3.534.617.77-.152 1.644-1.547 1.911s-2.885-.176-3.538-.936c-.803-.936-1.839-1.807-3.082-2.588-1.853-1.165-4.13-2.109-6.703-2.779s-5.39-1.054-8.291-1.128a40.64 40.64 0 0 0-8.617.696c-2.788.533-5.382 1.353-7.632 2.413s-4.114 2.338-5.484 3.763-2.22 2.968-2.501 4.54c-.189 1.056-.119 2.111.205 3.139.263.835-.474 1.704-1.869 1.971z"/><path d="M92.965 137.73c-3.284-1.87-3.341-4.94.16-6.674 8.224-4.072 17.562-7.361 27.684-9.739 12.719-2.987 26.426-4.477 40.338-4.385s27.757 1.766 40.744 4.924 24.863 7.741 34.949 13.484 18.183 12.537 23.831 19.991 8.736 15.424 9.087 23.454-2.042 15.963-7.042 23.347c-3.979 5.876-9.546 11.312-16.487 16.115-2.955 2.045-8.273 2.054-11.556.184s-3.284-4.909-.384-6.98c5.486-3.916 9.91-8.311 13.114-13.043 4.226-6.24 6.248-12.945 5.952-19.732s-2.907-13.523-7.68-19.823-11.618-12.041-20.142-16.895-18.56-8.727-29.537-11.396-22.677-4.084-34.435-4.162-23.343 1.181-34.092 3.706c-8.152 1.915-15.703 4.529-22.41 7.75-3.547 1.702-8.81 1.744-12.094-.126z"/><path fill-rule="evenodd" d="M252.04 76.513c-25.803 1.343-53.155 8.664-75.366 21.487-38.994 22.513-48.612 54.177-24.4 74.088l54.711-31.588c4.305-2.485 11.284-2.485 15.589 0l.866.5c4.304 2.485 4.304 6.515 0 9l-54.712 31.588c34.486 13.978 89.33 8.425 128.324-14.088 22.21-12.823 34.89-28.615 37.217-43.513L252.04 76.513z"/><path d="M332.992 117.75c9.138-5.276 14.116-12.522 13.838-20.144S344.689 80.503 335.157 75s-25.952-6.579-39.154-6.739-25.753 2.713-34.891 7.989L297.052 97l35.94 20.75z"/><rect width="40" height="12" rx="6" transform="matrix(.866025 .5 -.866025 .5 154.158 80)"/><rect width="40" height="12" rx="6" transform="matrix(.866025 .5 -.866025 .5 290.124 157.5)"/></g><path d="M48 42.717l202.561 105.232-2.094 185.259L65 225.217l-17-182.5z" fill="url(#B)"/><path d="M243 145.934l206-111-21 192.381-183.5 104.619-1.5-186z" fill="url(#C)"/><defs><linearGradient id="A" x1="41" y1="314.5" x2="274.774" y2="478.97" gradientUnits="userSpaceOnUse"><stop offset=".441" stop-color="#ffc107"/><stop offset="1" stop-color="#ffd862"/></linearGradient><linearGradient id="B" x1="151.533" y1="43.935" x2="86.385" y2="246.936" gradientUnits="userSpaceOnUse"><stop offset=".155" stop-color="#fff" stop-opacity="0"/><stop offset=".658" stop-color="#fff" stop-opacity=".1"/><stop offset="1" stop-color="#fff163"/></linearGradient><linearGradient id="C" x1="388.48" y1="-1.533" x2="457.632" y2="244.013" gradientUnits="userSpaceOnUse"><stop offset=".155" stop-color="#fff" stop-opacity="0"/><stop offset=".658" stop-color="#fff" stop-opacity=".1"/><stop offset="1" stop-color="#fff163"/></linearGradient></defs></svg>
